rocket/img/block.svg

<svg height="346" width="1239" xmlns="http://www.w3.org/2000/svg" xmlns:xlink="http://www.w3.org/1999/xlink"><filter id="a" filterUnits="userSpaceOnUse" height="346" width="1239" x="0" y="0"><feOffset dx="0" dy="0" in="SourceAlpha"/><feGaussianBlur result="blurOut" stdDeviation="5.477"/><feFlood result="floodOut"/><feComposite in="floodOut" in2="blurOut" operator="atop"/><feComponentTransfer><feFuncA slope="0.23" type="linear"/></feComponentTransfer><feMerge><feMergeNode/><feMergeNode in="SourceGraphic"/></feMerge></filter><g filter="url(#a)"><path d="m1189 250h-1140c-11.046 0-20-8.954-20-20v-181c0-11.046 8.954-20 20-20h1140c11.046 0 20 8.954 20 20v181c0 11.046-8.954 20-20 20zm-569.5 66-53.5-66h107z" fill="#fff" fill-rule="evenodd"/></g></svg>

<svg
 xmlns="http://www.w3.org/2000/svg"
 xmlns:xlink="http://www.w3.org/1999/xlink"
 width="1239px" height="346px">
<defs>
<filter filterUnits="userSpaceOnUse" id="Filter_0" x="0px" y="0px" width="1239px" height="346px"  >
    <feOffset in="SourceAlpha" dx="0" dy="0" />
    <feGaussianBlur result="blurOut" stdDeviation="5.477" />
    <feFlood flood-color="rgb(0, 0, 0)" result="floodOut" />
    <feComposite operator="atop" in="floodOut" in2="blurOut" />
    <feComponentTransfer><feFuncA type="linear" slope="0.23"/></feComponentTransfer>
    <feMerge>
    <feMergeNode/>
    <feMergeNode in="SourceGraphic"/>
  </feMerge>
</filter>

</defs>
<g filter="url(#Filter_0)">
<path fill-rule="evenodd"  fill="rgb(255, 255, 255)"
 d="M1189.000,250.000 L49.000,250.000 C37.954,250.000 29.000,241.046 29.000,230.000 L29.000,49.000 C29.000,37.954 37.954,29.000 49.000,29.000 L1189.000,29.000 C1200.046,29.000 1209.000,37.954 1209.000,49.000 L1209.000,230.000 C1209.000,241.046 1200.046,250.000 1189.000,250.000 ZM619.500,316.000 L566.000,250.000 L673.000,250.000 L619.500,316.000 Z"/>
</g>
</svg>
